assets/images/logo/logo-2.svg

<svg fill="none" height="24" viewBox="0 0 27 24" width="27" xmlns="http://www.w3.org/2000/svg"><g fill="#262d3f"><path d="m26.1608 10.2572-5.1296-8.66671c-.513-.942018-1.5389-1.507238-2.6289-1.507238h-10.25913c-1.09003 0-2.11594.56522-2.62889 1.507238l-5.129563 8.66671c-.512956.942-.512956 2.0724 0 3.0144l5.129563 8.6667c.51295.9421 1.53886 1.5073 2.62889 1.5073h10.25913c1.09 0 2.1159-.5652 2.6289-1.5073l5.1296-8.6667c.5128-.942.5128-2.0724 0-3.0144zm-1.9877 1.884-5.1296 8.6667c-.1283.2512-.3847.3768-.7053.3768h-10.19503c-.25647 0-.57707-.1256-.70531-.3768l-5.12956-8.6667c-.12824-.2511-.12824-.5652 0-.8164l5.12956-8.66667c.12824-.2512.38471-.37681.70531-.37681h10.25913c.2565 0 .577.12561.7053.37681l5.1295 8.66667c.1283.314.1283.5653-.064.8164z"/><path d="m17.9394 6.3125h-2.0546c-1.7 0-3.0921 1.36349-3.0921 3.0286v2.1888h-2.2347c-1.70008 0-3.09218 1.3635-3.09218 3.0286v2.0124c0 .87.73259 1.5876 1.62091 1.5876h2.05467c1.7 0 3.0921-1.3634 3.0921-3.0285v-2.1889h2.2348c1.7 0 3.0921-1.3635 3.0921-3.0286v-2.0124c0-.89824-.736-1.5876-1.621-1.5876zm-5.1467 8.7926c0 .8939-.7387 1.6174-1.6513 1.6174h-2.05467c-.10095 0-.18007-.0776-.18007-.1764v-2.0125c0-.8939.73864-1.6173 1.65134-1.6173h2.2347zm5.3268-5.2174c0 .8939-.7386 1.6173-1.6512 1.6173h-2.2348v-2.1888c0-.89384.7386-1.61731 1.6513-1.61731h2.0546c.101 0 .1801.0775.1801.17637z" stroke="#fff" stroke-width=".5"/></g></svg>

<svg width="27" height="24" viewBox="0 0 27 24" fill="none" xmlns="http://www.w3.org/2000/svg">
<path d="M26.1608 10.2572L21.0312 1.59049C20.5182 0.648472 19.4923 0.083252 18.4023 0.083252H8.14317C7.05314 0.083252 6.02723 0.648472 5.51428 1.59049L0.384717 10.2572C-0.128239 11.1992 -0.128239 12.3296 0.384717 13.2716L5.51428 21.9383C6.02723 22.8804 7.05314 23.4456 8.14317 23.4456H18.4023C19.4923 23.4456 20.5182 22.8804 21.0312 21.9383L26.1608 13.2716C26.6736 12.3296 26.6736 11.1992 26.1608 10.2572ZM24.1731 12.1412L19.0435 20.8079C18.9152 21.0591 18.6588 21.1847 18.3382 21.1847H8.14317C7.8867 21.1847 7.5661 21.0591 7.43786 20.8079L2.3083 12.1412C2.18006 11.8901 2.18006 11.576 2.3083 11.3248L7.43786 2.65813C7.5661 2.40693 7.82257 2.28132 8.14317 2.28132H18.4023C18.6588 2.28132 18.9793 2.40693 19.1076 2.65813L24.2371 11.3248C24.3654 11.6388 24.3654 11.8901 24.1731 12.1412Z" fill="#262D3F"/>
<path d="M17.9394 6.3125H15.8848C14.1848 6.3125 12.7927 7.67599 12.7927 9.3411V11.5299H10.558C8.85792 11.5299 7.46582 12.8934 7.46582 14.5585V16.5709C7.46582 17.4409 8.19841 18.1585 9.08673 18.1585H11.1414C12.8414 18.1585 14.2335 16.7951 14.2335 15.13V12.9411H16.4683C18.1683 12.9411 19.5604 11.5776 19.5604 9.9125V7.9001C19.5604 7.00186 18.8244 6.3125 17.9394 6.3125ZM12.7927 15.1051C12.7927 15.999 12.054 16.7225 11.1414 16.7225H9.08673C8.98578 16.7225 8.90666 16.6449 8.90666 16.5461V14.5336C8.90666 13.6397 9.6453 12.9163 10.558 12.9163H12.7927V15.1051ZM18.1195 9.8877C18.1195 10.7816 17.3809 11.505 16.4683 11.505H14.2335V9.3162C14.2335 8.42236 14.9721 7.69889 15.8848 7.69889H17.9394C18.0404 7.69889 18.1195 7.77639 18.1195 7.87526V9.8877Z" fill="#262D3F" stroke="white" stroke-width="0.5"/>
</svg>
